app/dist/common/images/forterra-plc.svg

<svg height="18" viewBox="0 0 18 18" width="18" xmlns="http://www.w3.org/2000/svg"><path d="m0 0h18v18h-18z" fill="#f0f3fa"/><path d="m4 4h10v3h-10zm0 10v-6h3v6zm4-6h6v2h-6zm0 3h2v3h-2zm4.5 0a1.5 1.5 0 1 1 0 3 1.5 1.5 0 0 1 0-3z" fill="#2b2b2a"/></svg>

<!-- by TradingView --><svg width="18" height="18" viewBox="0 0 18 18" xmlns="http://www.w3.org/2000/svg"><path fill="#F0F3FA" d="M0 0h18v18H0z"/><path d="M4 4h10v3H4V4ZM4 14V8h3v6H4ZM8 8h6v2H8V8ZM8 11h2v3H8v-3ZM12.5 11a1.5 1.5 0 1 1 0 3 1.5 1.5 0 0 1 0-3Z" fill="#2B2B2A"/></svg>
